build/img/icons/mail.svg

<svg width="48" height="48" viewBox="0 0 48 48" fill="none" xmlns="http://www.w3.org/2000/svg">
<path fill-rule="evenodd" clip-rule="evenodd" d="M0 24C0 10.7452 10.7452 0 24 0C37.2548 0 48 10.7452 48 24C48 37.2548 37.2548 48 24 48C10.7452 48 0 37.2548 0 24Z" fill="#F8F8F8"/>
<path d="M11.744 19.0911L22.6531 24.219C23.0197 24.3908 23.4938 24.4722 23.9709 24.4722C24.448 24.4722 24.9222 24.3908 25.2888 24.219L36.1978 19.0911C36.9091 18.7564 37.5811 17.4544 36.2764 17.4544H11.6669C10.3622 17.4544 11.0342 18.7564 11.744 19.0911ZM36.528 21.895L25.2888 27.0202C24.7942 27.2468 24.448 27.2735 23.9709 27.2735C23.4938 27.2735 23.1477 27.2468 22.6531 27.0202C22.1586 26.7937 12.2778 22.2615 11.4706 21.8937C10.9033 21.634 10.9091 21.9382 10.9091 22.1724V31.4544C10.9091 31.989 11.7324 32.7271 12.3637 32.7271H35.6364C36.2677 32.7271 37.0909 31.989 37.0909 31.4544V22.1737C37.0909 21.9395 37.0968 21.6353 36.528 21.895Z" fill="#201D54"/>
</svg>

<svg width="48" height="48" fill="none" xmlns="http://www.w3.org/2000/svg"><path fill-rule="evenodd" clip-rule="evenodd" d="M0 24C0 10.745 10.745 0 24 0s24 10.745 24 24-10.745 24-24 24S0 37.255 0 24z" fill="#F8F8F8"/><path d="M11.744 19.091l10.91 5.128c.366.172.84.253 1.317.253s.951-.081 1.318-.253l10.909-5.128c.711-.335 1.383-1.637.078-1.637h-24.61c-1.304 0-.632 1.302.078 1.637zm24.784 2.804l-11.24 5.125c-.494.227-.84.253-1.317.253s-.823-.026-1.318-.253c-.494-.226-10.375-4.758-11.182-5.126-.568-.26-.562.044-.562.278v9.282c0 .535.823 1.273 1.455 1.273h23.272c.632 0 1.455-.738 1.455-1.273v-9.28c0-.235.006-.539-.563-.279z" fill="#201D54"/></svg>
